X:1
T:Inventio 5
T:Inventio V
T:BWV 776
T:J. S. Bach
T:L. Kopecny 
C:J. S. Bach
%%score { 1 | 2 }
L:1/8
Q:1/4=88
M:4/4
K:Eb
V:1 treble nm="Flügel" snm="Flgl."
V:2 bass 
V:1
"^\n"!mp! z .E/.!2!D/ .!3!E.!1!F M!3!G2 A2 | z .F/.!2!E/ .!1!F.!2!G M!3!A2 B2 | %2
 .!1!G.!4!cMBA !1!G/A/B/A/ G!2!F | .E.!2!G.!3!Be- e/!2!c/d/e/ !5!fe | %4
 !3!d/e/d/c/ d/e/c/d/ !1!B/!5!b/=a/b/ !3!g/a/f/g/ | %5
 e/g/f/g/ !1!e/!2!f/!1!d/!2!e/ !1!c/!5!b/=a/g/ a/b/g/!4!a/ | %6
 B/b/=a/g/ a/b/g/a/ !2!f/b/_a/g/ f/g/!1!e/!2!f/ | %7
 !1!d/!5!g/f/e/ !2!d/e/!1!c/d/ F/!3!e/d/c/ d/e/c/d/ | e.!3!B/.!2!A/ .!3!B.!1!c M!3!_d2 e2 | %9
 z .!3!c/.B/ .!1!c.=d Me2 f2 | z .d/.c/ .!1!d.e M!3!f2 g2 | %11
 !2!e/f/e/d/ e/f/!1!d/e/ !1!c/c'/b/c'/ a/b/g/a/ | %12
 !1!f/a/g/a/ f/g/!1!e/f/ !1!d/c'/=b/=a/ b/c'/a/b/ | c/c'/_b/_a/ b/c'/a/b/ g/c'/b/a/ g/a/!1!f/g/ | %14
 !1!=e/!3!a/g/f/ !2!e/f/d/e/ !1!G/!3!f/e/d/ e/f/d/e/ | f.F/.=E/ .F.G MA2 B2 | %16
 z .G/.F/ .G.A MB2 c2 | A!4!_dMcB =A/B/c/B/ !1!A!2!G | F=Ac!5!e- e/!2!c/_d/e/ fe | %19
 !3!_d/e/Pd/c/ d/e/c/d/ B/a/g/f/ g/a/f/g/ | a/!3!_d/c/B/ c/d/B/c/ !1!A/g/f/=e/ f/g/e/f/ | %21
 g/!3!c/B/A/ B/c/A/B/ !1!G/f/=e/d/ e/f/d/e/ | f.A/.G/ .A.!4!B M!3!c2 _d2 | %23
 z .B/.A/ .B.!1!c M!3!_d2 e2 | c/!4!a/g/a/ f/g/e/f/ _d/!5!b/a/b/ c/!3!d/B/!2!c/ | %25
 A/!3!c/B/c/ A/B/!1!G/!2!A/ !1!F/!4!e/d/c/ d/e/c/d/ | e.E/.D/ .E.F MG2 A2 | z .F/.E/ .F.G MA2 B2 | %28
 GcMBA G/A/B/A/ GF | E!5!fM!3!e_d c/d/e/d/ !1!c!2!B | A!2!ce!5!a- a/!2!f/g/a/ ba | %31
{/!5!a} g3/2!3!f/4e/4 Mf2 !fermata!!2!e4 |] %32
V:2
 ME,2 !5!E,,2 z/ !1!E/D/E/ C/D/B,/C/ | %1
 !5!A,/!1!C/B,/C/ A,/B,/G,/A,/ !5!F,/!1!E/D/C/ D/E/!3!C/!2!D/ | %2
 E,/E/D/C/ D/E/C/D/ !4!B,/E/D/C/ B,/!1!C/A,/B,/ | %3
 !4!G,/C/B,/A,/ G,/A,/!5!F,/!1!G,/ !5!C,/B,/=A,/G,/ A,/B,/G,/A,/ | %4
 !1!B,!3!B,,/=A,,/ .B,,C, M!2!D,2 !1!E,2 | z .!2!C,/.B,,/ .C,.!1!D, M!2!E,2 F,2 | %6
 D,!1!G,MF,E, D,/E,/!1!F,/E,/ !3!D,!4!C, | .B,,.D,.F,A,- A,/!4!F,/G,/A,/ B,!2!A, | %8
 G,/A,/G,/F,/ G,/!2!A,/F,/G,/ E,/E/_D/E/ C/D/B,/C/ | %9
 !5!A,/!2!B,/A,/G,/ A,/B,/G,/A,/ !5!F,/F/E/F/ D/E/C/!1!D/ | %10
 !3!B,/C/B,/=A,/ B,/!1!C/_A,/B,/ G,/A,/!2!F,/G,/ E,/F,/D,/E,/ | %11
 C,.!2!C,/.=B,,/ .C,.D, M!2!E,2 F,2 | z .D,/.C,/ .D,.E, MF,2 G,2 | %13
 E,A,MG,F, !4!=E,/F,/G,/F,/ E,!5!D, | C,=E,G,B,- B,/!4!G,/A,/B,/ CB, | %15
 !3!A,/B,/A,/G,/ A,/B,/G,/A,/ F,/F/E/F/ _D/E/C/D/ | %16
 !5!B,/!1!_D/C/D/ B,/C/A,/B,/ G,/F/=E/=D/ E/F/D/E/ | F,/F/_E/_D/ E/F/D/E/ !4!C/F/E/D/ C/D/B,/C/ | %18
 !5!=A,/!1!_D/C/B,/ A,/B,/G,/A,/ !5!C,/B,/A,/G,/ A,/B,/G,/A,/ | %19
 B,.!3!B,,/.=A,,/ .B,,.C, M!2!_D,2 E,2 | z ._A,,/.G,,/ .A,,.B,, MC,2 _D,2 | %21
 z .G,,/.F,,/ .G,,.A,, MB,,2 C,2 | !5!F,,/C/B,/C/ A,/B,/G,/A,/ !5!F,/!1!A,/G,/A,/ F,/G,/E,/F,/ | %23
 !5!_D,/!1!F,/E,/F,/ D,/E,/C,/D,/ B,,/A,/G,/F,/ G,/A,/F,/G,/ | A,.E,/.=D,/ .E,.F, MG,2 A,2 | %25
 z .F,/.E,/ .F,.G, MA,2 B,2 | !2!G,/A,/G,/F,/ G,/A,/F,/G,/ !5!E,/E/D/E/ C/D/B,/C/ | %27
 !5!A,/!1!C/B,/C/ A,/B,/G,/A,/ F,/E/D/C/ D/E/C/D/ | %28
 !5!E,/E/D/C/ D/E/C/D/ !4!B,/E/D/C/ B,/C/A,/B,/ | %29
 !5!G,/!1!C/B,/A,/ G,/A,/F,/G,/ E,/A,/G,/F,/ E,/F,/!5!_D,/E,/ | %30
 !5!C,/!1!F,/E,/_D,/ C,/D,/B,,/C,/ F,,/E,/=D,/C,/ D,/E,/C,/D,/ | E,!4!G,,A,,B,, !fermata!!5!E,,4 |] %32

